X: 7
T: Captain O'Kane
R: jig
M: 6/8
L: 1/8
K: Bmin
M: 3/4
|: BA |F2 B2 c2 | d4 cB | cd ed cB | A2 B2 c2 |
d2 f2 d2 | fe dc BA | F2 B2 ^A2 | B4 :|
|: Bc |d2 f2 f2 | f4 ed | c2 e2 e2 | e4 ag |
f2 b3 b | b2 c’2 d’2 | f2 b2 ^a2 | b4 bc’ |
d’2 c’2 b2 | a2 g2 f2 | fe dc a2 | A4 Bc |
d2 f2 d2 | fe dc BA | F2 B2 ^A2 | B4 :|


Tune 858	Setting 14024

